X:1
T:Title
%%score { 1 | 2 }
L:1/8
Q:1/4=87
M:6/8
K:A
V:1 treble nm="Grand Piano"
V:2 bass 
V:1
 [Ec]>[DB][CA] [FA]>[EG][DF] | [CE]>[DF][CE] C2 [CE] | [CE]>[Ec][Ec] [Ec][DB][CA] | %3
w: S.~W.~Straub * * * * *|||
 [EB]3- [EB]2 [EB] | [Ec]>[DB][CA] [FA]>[EG][DF] | [CE]>[DF][CE] C2 [CE] | E>EE EFG | [CA]6 | %8
w: |||||
 c .e2 [CA] .[Ec]2 | [DF][FA]>[FB] [Ec]3 | [Ec]>[EB][EB] [^DB][Ec][F^d] | [Ee]3 [Ed]3 | %12
w: ||||
 [Ec]>[DB][CA] [FA]>[EG][DF] | [CE]>[DF][CE] C3 | E>EE EFG | [CA]6 |] %16
w: ||||
V:2
 [A,,A,]>[A,,A,][A,,A,] [A,,A,]>[A,,A,][A,,A,] | [A,,A,]>[A,,A,][A,,A,] [A,,A,]2 [A,,A,] | %2
 [A,,A,]>[A,,A,][A,,A,] [A,,A,][A,,A,][A,,A,] | [E,G,]3- [E,G,]2 [E,G,] | %4
 [A,,A,]>[A,,A,][A,,A,] [A,,A,]>[A,,A,][A,,A,] | [A,,A,]>[A,,A,][A,,A,] [A,,A,]2 [A,,A,] | %6
 [E,G,B,]>[E,A,C][E,A,C] [E,B,D][E,B,D][E,B,D] | [A,,A,]6 | [A,E] .[A,CE]2 [A,,A,] .[A,,A,]2 | %9
 [D,A,][D,A,]>[D,A,] [A,,A,]3 | [B,,A,]>[B,,G,][B,,G,] [B,,A,][B,,A,][B,,A,] | [E,G,]3 [E,G,]3 | %12
 [A,,A,]>[A,,A,][A,,A,] [A,,A,]>[A,,A,][A,,A,] | [A,,A,]>[A,,A,][A,,A,] [A,,A,]3 | %14
 [E,G,B,]>[E,A,C][E,A,C] [E,B,D][E,B,D][E,B,D] | [A,,A,]6 |] %16

